X:1
T:Blue Train
C:John Coltrane
Z:All Rights Reserved
L:1/8
Q:1/4=1
M:4/4
K:Eb
V:1 treble 
V:1
"^Medium Blues" B _dfde- |:"Eb7#9" e8 | z2 z B _dfde- | e8 | z2 z E _GBGA- |"Eb7#11" A8 | %6
 z2 z B _dfde- |"Eb7#9" e8 | z2 z B _d_ged- |"Bb7#9" d8 | z2 z B _dfde- |1"Eb7#9" e8 | %12
 z2 z B _dfde :|2"Eb7#9" e8 | z8 |] %15

